images/marker-safe-boe.svg

<?xml version="1.0" encoding="utf-8"?>
<!-- Generator: Adobe Illustrator 21.0.1, SVG Export Plug-In . SVG Version: 6.00 Build 0)  -->
<svg version="1.1" id="Layer_1" xmlns="http://www.w3.org/2000/svg" xmlns:xlink="http://www.w3.org/1999/xlink" x="0px" y="0px"
	 viewBox="0 0 64 64" style="enable-background:new 0 0 64 64;" xml:space="preserve">
<style type="text/css">
	.st0{fill:#6F4512;}
	.st1{fill:#CE8508;}
</style>
<g>
	<circle class="st0" cx="32" cy="32" r="28.9"/>
</g>
<g>
	<rect x="18.613" y="50.217" class="st1" width="29.231" height="3.317"/>
	<rect x="19.262" y="26.947" class="st1" width="4.087" height="22.068"/>
	<rect x="27.211" y="26.947" class="st1" width="4.087" height="22.068"/>
	<rect x="43.108" y="26.947" class="st1" width="4.087" height="22.068"/>
	<rect x="35.16" y="26.947" class="st1" width="4.087" height="22.068"/>
	<rect x="18.613" y="22.428" class="st1" width="29.231" height="3.317"/>
	<polygon class="st1" points="47.195,21.226 33.998,14.23 33.998,10.841 40.704,10.841 40.704,6.466 33.998,6.466 33.228,6.466 
		32.459,6.466 32.459,14.23 19.262,21.226 	"/>
	<polygon class="st1" points="20.592,19.303 20.592,15.216 27.868,15.216 	"/>
	<polygon class="st1" points="46.057,15.216 46.057,19.303 38.781,15.216 	"/>
	<path class="st1" d="M2.867,30.264V47.38H17.05V30.264H2.867z M8.637,45.024H6.233v-6.01h2.404V45.024z M8.637,36.13H6.233v-3.846
		h2.404V36.13z M14.791,45.024h-2.404v-6.01h2.404V45.024z M14.791,36.13h-2.404v-3.846h2.404V36.13z"/>
	<rect x="2.05" y="48.641" class="st1" width="15" height="3.317"/>
	<polygon class="st1" points="14.166,26.528 14.166,24.316 9.069,24.316 9.069,26.528 2.05,26.528 2.05,28.884 17.05,28.884 
		17.05,26.528 	"/>
	<path class="st1" d="M51.613,32.284v3.846h-2.115v2.885h2.115v6.01h-2.115v2.356h11.635V30.264H49.498v2.019H51.613z
		 M55.363,32.284h2.404v3.846h-2.404V32.284z M55.363,39.015h2.404v6.01h-2.404V39.015z"/>
	<rect x="49.498" y="48.641" class="st1" width="12.452" height="3.317"/>
	<polygon class="st1" points="61.95,28.884 61.95,26.528 54.931,26.528 54.931,24.316 49.834,24.316 49.834,26.528 49.498,26.528 
		49.498,28.884 	"/>
</g>
</svg>

<svg xmlns="http://www.w3.org/2000/svg" viewBox="0 0 64 64" enable-background="new 0 0 64 64"><style type="text/css">.st0{fill:#6F4512;} .st1{fill:#CE8508;}</style><circle class="st0" cx="32" cy="32" r="28.9"/><path class="st1" d="M18.6 50.2h29.2v3.3h-29.2zM19.3 26.9h4.1v22.1h-4.1zM27.2 26.9h4.1v22.1h-4.1zM43.1 26.9h4.1v22.1h-4.1zM35.2 26.9h4.1v22.1h-4.1zM18.6 22.4h29.2v3.3h-29.2zM47.2 21.2l-13.2-7v-3.4h6.7v-4.3h-8.2v7.7l-13.2 7zM20.6 19.3v-4.1h7.3zM46.1 15.2v4.1l-7.3-4.1zM2.9 30.3v17.1h14.1v-17.1h-14.1zm5.7 14.7h-2.4v-6h2.4v6zm0-8.9h-2.4v-3.8h2.4v3.8zm6.2 8.9h-2.4v-6h2.4v6zm0-8.9h-2.4v-3.8h2.4v3.8zM2 48.6h15v3.3h-15zM14.2 26.5v-2.2h-5.1v2.2h-7.1v2.4h15v-2.4zM51.6 32.3v3.8h-2.1v2.9h2.1v6h-2.1v2.4h11.6v-17.1h-11.6v2h2.1zm3.8 0h2.4v3.8h-2.4v-3.8zm0 6.7h2.4v6h-2.4v-6zM49.5 48.6h12.5v3.3h-12.5zM62 28.9v-2.4h-7.1v-2.2h-5.1v2.2h-.3v2.4z"/></svg>
